resources/haticons/SVG/hourglass_bottom.svg

<!-- Generated by IcoMoon.io -->
<svg version="1.1" xmlns="http://www.w3.org/2000/svg" width="24" height="24" viewBox="0 0 24 24">
<title>hourglass_bottom</title>
<path d="M18 21.984v-6l-3.984-3.984 3.984-4.031v-5.953h-12v6l3.984 3.984-3.984 3.984v6h12zM8.016 7.5v-3.516h7.969v3.516l-3.984 3.984z"></path>
</svg>

<svg xmlns="http://www.w3.org/2000/svg" width="24" height="24"><path d="M18 21.984v-6L14.016 12 18 7.969V2.016H6v6L9.984 12 6 15.984v6h12zM8.016 7.5V3.984h7.969V7.5l-3.984 3.984z"/></svg>
